;FLAVOR:Marlin
;TIME:1720
;Filament used: 5.54858m
;Layer height: 0.35
;MINX:14.832
;MINY:12.052
;MINZ:0.2
;MAXX:203.131
;MAXY:192.745
;MAXZ:1.95
;Generated with Cura_SteamEngine 4.8.0
M140 S60
M105
M190 S60
M104 S200
M105
M109 S200
M82 ;absolute extrusion mode

G92 E0
G92 E0
G1 F2100 E-5
;LAYER_COUNT:6
;LAYER:0
M107
G0 F2700 X21.053 Y16.963 Z0.2
;TYPE:SKIRT
G1 F2100 E0
G1 F2700 X21.606 Y16.258 E0.04522
G1 X21.831 Y15.995 E0.06268
G1 X22.463 Y15.319 E0.10939
G1 X23.15 Y14.7 E0.15605
G1 X23.888 Y14.142 E0.20274
G1 X24.515 Y13.741 E0.2403
G1 X24.608 Y13.686 E0.24576
G1 X25.485 Y13.221 E0.29585
G1 X25.72 Y13.11 E0.30897
G1 X26.573 Y12.751 E0.35567
G1 X27.453 Y12.468 E0.40232
G1 X28.355 Y12.261 E0.44902
G1 X29.066 Y12.155 E0.4853
G1 X29.601 Y12.101 E0.51244
G1 X29.82 Y12.084 E0.52352
G1 X30.744 Y12.052 E0.57018
G1 X31.897 Y12.125 E0.62848
G1 X32.675 Y12.218 E0.66802
G1 X33.895 Y12.381 E0.73014
G1 X35.666 Y12.642 E0.82048
G1 X36.309 Y12.746 E0.85335
G1 X38.828 Y13.082 E0.9816
G1 X40.31 Y13.239 E1.0568
G1 X41.648 Y13.399 E1.12481
G1 X42.809 Y13.553 E1.18391
G1 X44.582 Y13.814 E1.27435
G1 X45.441 Y13.951 E1.31825
G1 X47.947 Y14.28 E1.4458
G1 X49.695 Y14.467 E1.53452
G1 X50.467 Y14.561 E1.57376
G1 X51.719 Y14.726 E1.63749
G1 X52.386 Y14.823 E1.67151
G1 X53.295 Y14.996 E1.7182
G1 X54.471 Y15.345 E1.78011
G1 X55.6 Y15.753 E1.84069
G1 X56.578 Y16.123 E1.89346
G1 X59.002 Y16.96 E2.02287
G1 X61.38 Y17.71 E2.14871
G1 X63.821 Y18.401 E2.27673
G1 X66.297 Y19.029 E2.40564
G1 X68.717 Y19.568 E2.53076
G1 X71.225 Y20.055 E2.65969
G1 X73.713 Y20.464 E2.78693
G1 X76.208 Y20.803 E2.914
G1 X78.72 Y21.072 E3.0415
G1 X81.211 Y21.267 E3.16759
G1 X83.761 Y21.395 E3.29644
G1 X86.315 Y21.45 E3.42536
G1 X87.429 Y21.446 E3.48158
G1 X129.954 Y21.447 E5.62761
G1 X131.668 Y21.443 E5.71411
G1 X134.227 Y21.37 E5.8433
G1 X136.748 Y21.227 E5.97073
G1 X139.258 Y21.013 E6.09786
G1 X141.754 Y20.728 E6.22464
G1 X144.268 Y20.37 E6.35279
G1 X146.776 Y19.94 E6.4812
G1 X149.2 Y19.454 E6.60596
G1 X151.701 Y18.877 E6.73549
G1 X154.129 Y18.245 E6.86211
G1 X156.545 Y17.542 E6.98909
G1 X158.926 Y16.775 E7.11533
G1 X162.673 Y15.423 E7.31635
G1 X163.637 Y15.126 E7.36726
G1 X163.905 Y15.057 E7.38122
G1 X164.843 Y14.86 E7.42959
G1 X165.402 Y14.773 E7.45814
G1 X166.948 Y14.569 E7.53684
G1 X168.644 Y14.37 E7.62301
G1 X169.56 Y14.276 E7.66948
G1 X172.081 Y13.945 E7.7978
G1 X173.847 Y13.668 E7.88801
G1 X174.636 Y13.556 E7.92822
G1 X175.871 Y13.394 E7.99108
G1 X177.602 Y13.191 E8.07904
G1 X178.614 Y13.087 E8.13038
G1 X181.133 Y12.753 E8.25861
G1 X182.61 Y12.524 E8.33404
G1 X183.123 Y12.441 E8.36026
G1 X183.401 Y12.402 E8.37443
G1 X184.8 Y12.218 E8.44564
G1 X185.492 Y12.136 E8.48081
G1 X186.414 Y12.067 E8.52747
G1 X187.34 Y12.078 E8.5742
G1 X187.63 Y12.094 E8.58886
G1 X188.551 Y12.185 E8.63556
G1 X189.46 Y12.355 E8.68223
G1 X190.051 Y12.51 E8.71306
G1 X190.225 Y12.561 E8.72221
G1 X191.1 Y12.859 E8.76886
G1 X192.035 Y13.276 E8.82053
G1 X192.255 Y13.387 E8.83296
G1 X193.062 Y13.839 E8.87964
G1 X193.827 Y14.359 E8.92632
G1 X194.544 Y14.943 E8.97299
G1 X195.234 Y15.614 E9.02156
G1 X195.296 Y15.68 E9.02613
G1 X195.636 Y16.059 E9.05182
G1 X195.805 Y16.257 E9.06496
G1 X196.374 Y16.986 E9.11163
G1 X196.879 Y17.762 E9.15835
G1 X197.314 Y18.578 E9.20502
G1 X197.731 Y19.574 E9.25951
G1 X197.903 Y20.072 E9.2861
G1 X197.971 Y20.285 E9.29738
G1 X198.214 Y21.177 E9.34404
G1 X198.317 Y21.688 E9.37034
G1 X198.449 Y22.548 E9.41425
G1 X200.72 Y39.776 E10.29119
G1 X200.824 Y40.648 E10.33551
G1 X200.892 Y41.57 E10.38216
G1 X200.882 Y42.463 E10.42723
G1 X200.837 Y43.16 E10.46248
G1 X200.829 Y43.247 E10.46689
G1 X200.721 Y44.072 E10.50888
G1 X200.463 Y45.575 E10.58584
G1 X200.431 Y45.748 E10.59471
G1 X200.045 Y48.241 E10.72202
G1 X199.727 Y50.764 E10.85036
G1 X199.485 Y53.241 E10.97595
G1 X199.309 Y55.793 E11.10505
G1 X199.207 Y58.306 E11.23197
G1 X199.176 Y60.804 E11.35804
G1 X199.217 Y63.326 E11.48533
G1 X199.218 Y63.57 E11.49765
G1 X199.204 Y64.154 E11.52713
G1 X199.174 Y64.658 E11.55261
G1 X199.099 Y65.565 E11.59853
G1 X198.954 Y67.073 E11.67499
G1 X198.785 Y69.564 E11.80098
G1 X198.684 Y72.128 E11.93048
G1 X198.656 Y74.637 E12.0571
G1 X198.699 Y77.146 E12.18374
G1 X198.814 Y79.671 E12.3113
G1 X199.001 Y82.199 E12.43922
G1 X199.208 Y84.226 E12.54205
G1 X199.249 Y84.689 E12.5655
G1 X199.288 Y85.904 E12.62685
G1 X199.276 Y86.378 E12.65078
G1 X199.25 Y88.899 E12.77801
G1 X199.293 Y91.4 E12.90424
G1 X199.41 Y93.948 E13.03296
G1 X199.6 Y96.513 E13.16276
G1 X199.615 Y96.681 E13.17127
G1 X199.672 Y97.407 E13.20802
G1 X199.697 Y98.581 E13.26728
G1 X199.642 Y101.259 E13.40246
G1 X199.661 Y103.803 E13.53084
G1 X199.749 Y106.292 E13.65653
G1 X199.909 Y108.806 E13.78366
G1 X200.145 Y111.359 E13.91304
G1 X200.443 Y113.821 E14.0382
G1 X200.825 Y116.38 E14.16877
G1 X200.899 Y116.803 E14.19044
G1 X201.036 Y117.657 E14.23409
G1 X201.088 Y118.019 E14.25254
G1 X201.155 Y118.642 E14.28416
G1 X201.174 Y118.887 E14.29657
G1 X201.206 Y119.811 E14.34322
G1 X201.185 Y120.379 E14.37191
G1 X201.143 Y121.039 E14.40528
G1 X201.008 Y122.78 E14.49341
G1 X200.886 Y125.274 E14.61942
G1 X200.834 Y127.813 E14.74758
G1 X200.854 Y130.355 E14.87586
G1 X200.944 Y132.858 E15.00226
G1 X201.109 Y135.409 E15.13126
G1 X201.339 Y137.898 E15.25741
G1 X201.515 Y139.375 E15.33247
G1 X201.58 Y140.003 E15.36433
G1 X201.619 Y140.452 E15.38708
G1 X201.642 Y141.648 E15.44745
G1 X201.585 Y144.312 E15.58192
G1 X201.598 Y146.861 E15.71055
G1 X201.682 Y149.39 E15.83825
G1 X201.836 Y151.868 E15.96354
G1 X202.066 Y154.423 E16.09301
G1 X202.364 Y156.929 E16.22036
G1 X202.733 Y159.429 E16.34789
G1 X202.784 Y159.724 E16.363
G1 X202.961 Y160.828 E16.41943
G1 X203.013 Y161.189 E16.43783
G1 X203.079 Y161.805 E16.4691
G1 X203.098 Y162.048 E16.4814
G1 X203.131 Y162.972 E16.52806
G1 X203.083 Y163.89 E16.57445
G1 X203.05 Y164.209 E16.59063
G1 X202.965 Y164.922 E16.62687
G1 X200.692 Y182.17 E17.50482
G1 X200.6 Y182.8 E17.53695
G1 X200.427 Y183.709 E17.58365
G1 X200.2 Y184.525 E17.62639
G1 X200.165 Y184.634 E17.63217
G1 X199.987 Y185.144 E17.65943
G1 X199.902 Y185.369 E17.67156
G1 X199.538 Y186.22 E17.71827
G1 X199.101 Y187.035 E17.76494
G1 X198.597 Y187.811 E17.81164
G1 X198.06 Y188.5 E17.85572
G1 X197.917 Y188.669 E17.86689
G1 X197.29 Y189.348 E17.91353
G1 X196.606 Y189.971 E17.96023
G1 X196.028 Y190.425 E17.99732
G1 X195.27 Y190.954 E18.04396
G1 X194.133 Y191.583 E18.10954
G1 X193.944 Y191.673 E18.1201
G1 X193.093 Y192.034 E18.16675
G1 X192.213 Y192.32 E18.21345
G1 X191.312 Y192.529 E18.26012
G1 X190.671 Y192.629 E18.29286
G1 X190.567 Y192.642 E18.29815
G1 X190.067 Y192.693 E18.32352
G1 X189.809 Y192.713 E18.33658
G1 X188.885 Y192.745 E18.38323
G1 X187.726 Y192.671 E18.44184
G1 X186.904 Y192.573 E18.48362
G1 X185.746 Y192.419 E18.54257
G1 X183.971 Y192.158 E18.63311
G1 X183.112 Y192.021 E18.67701
G1 X180.606 Y191.692 E18.80456
G1 X178.858 Y191.505 E18.89328
G1 X178.086 Y191.411 E18.93252
G1 X176.822 Y191.244 E18.99687
G1 X175.082 Y190.988 E19.08562
G1 X174.336 Y190.868 E19.12375
G1 X171.844 Y190.537 E19.25062
G1 X170.497 Y190.396 E19.31896
G1 X169.109 Y190.23 E19.38951
G1 X167.895 Y190.068 E19.45132
G1 X167.232 Y189.971 E19.48513
G1 X166.323 Y189.798 E19.53183
G1 X165.159 Y189.452 E19.59311
G1 X164.081 Y189.063 E19.65094
G1 X163.003 Y188.656 E19.70909
G1 X160.624 Y187.835 E19.8361
G1 X158.197 Y187.072 E19.96449
G1 X155.787 Y186.391 E20.09087
G1 X153.287 Y185.757 E20.22103
G1 X150.863 Y185.219 E20.34633
G1 X148.406 Y184.744 E20.47262
G1 X145.879 Y184.329 E20.60186
G1 X143.394 Y183.992 E20.72841
G1 X140.874 Y183.723 E20.85631
G1 X138.347 Y183.526 E20.98422
G1 X135.843 Y183.402 E21.11074
G1 X133.274 Y183.347 E21.24041
G1 X132.201 Y183.351 E21.29456
G1 X89.676 Y183.35 E23.4406
G1 X87.962 Y183.354 E23.5271
G1 X85.403 Y183.427 E23.65629
G1 X82.882 Y183.57 E23.78372
G1 X80.372 Y183.784 E23.91085
G1 X77.876 Y184.069 E24.03763
G1 X75.362 Y184.427 E24.16578
G1 X72.854 Y184.857 E24.29419
G1 X70.43 Y185.343 E24.41895
G1 X67.929 Y185.92 E24.54848
G1 X65.501 Y186.552 E24.67509
G1 X63.085 Y187.255 E24.80208
G1 X60.704 Y188.022 E24.92831
G1 X56.957 Y189.374 E25.12934
G1 X55.993 Y189.671 E25.18025
G1 X55.725 Y189.74 E25.19421
G1 X54.787 Y189.937 E25.24258
G1 X54.228 Y190.024 E25.27113
G1 X52.68 Y190.228 E25.34993
G1 X51.013 Y190.424 E25.43463
G1 X50.089 Y190.518 E25.4815
G1 X47.559 Y190.849 E25.61027
G1 X45.827 Y191.118 E25.69872
G1 X45.29 Y191.201 E25.72614
G1 X43.759 Y191.403 E25.80407
G1 X42.063 Y191.602 E25.89025
G1 X41.147 Y191.696 E25.93672
G1 X38.626 Y192.027 E26.06503
G1 X36.86 Y192.304 E26.15525
G1 X36.071 Y192.416 E26.19546
G1 X34.831 Y192.579 E26.25858
G1 X34.126 Y192.662 E26.2944
G1 X33.204 Y192.73 E26.34106
G1 X32.306 Y192.72 E26.38638
G1 X32.043 Y192.706 E26.39967
G1 X31.123 Y192.617 E26.44631
G1 X30.213 Y192.449 E26.49301
G1 X29.542 Y192.273 E26.52802
G1 X28.662 Y191.988 E26.5747
G1 X27.563 Y191.506 E26.63526
G1 X27.356 Y191.401 E26.64697
G1 X26.55 Y190.947 E26.69366
G1 X25.786 Y190.425 E26.74035
G1 X25.07 Y189.84 E26.78701
G1 X24.119 Y188.876 E26.85535
G1 X23.887 Y188.609 E26.8732
G1 X23.311 Y187.885 E26.91989
G1 X22.8 Y187.114 E26.96657
G1 X22.357 Y186.302 E27.01325
G1 X21.975 Y185.426 E27.06148
G1 X21.932 Y185.314 E27.06753
G1 X21.709 Y184.673 E27.10178
G1 X21.638 Y184.446 E27.11378
G1 X21.4 Y183.552 E27.16047
G1 X21.264 Y182.812 E27.19844
G1 X21.171 Y182.181 E27.23063
G1 X18.902 Y164.956 E28.1074
G1 X18.802 Y164.105 E28.15064
G1 X18.735 Y163.183 E28.1973
G1 X18.734 Y162.614 E28.22601
G1 X18.755 Y161.757 E28.26927
G1 X18.781 Y159.226 E28.39701
G1 X18.738 Y156.726 E28.52319
G1 X18.62 Y154.154 E28.65312
G1 X18.435 Y151.675 E28.77857
G1 X18.174 Y149.13 E28.90768
G1 X18.008 Y147.802 E28.97522
G1 X17.405 Y143.22 E29.20845
G1 X17.328 Y142.561 E29.24193
G1 X17.261 Y141.638 E29.28863
G1 X17.274 Y140.699 E29.33602
G1 X17.3 Y140.26 E29.35822
G1 X17.487 Y137.596 E29.49299
G1 X17.594 Y135.047 E29.62174
G1 X17.629 Y132.533 E29.74862
G1 X17.592 Y130.001 E29.87641
G1 X17.485 Y127.498 E30.00284
G1 X17.305 Y124.972 E30.13064
G1 X17.01 Y122.074 E30.27764
G1 X16.88 Y120.955 E30.33449
G1 X16.813 Y120.032 E30.3812
G1 X16.811 Y119.462 E30.40996
G1 X16.825 Y118.873 E30.43969
G1 X16.851 Y116.307 E30.56919
G1 X16.807 Y113.799 E30.69578
G1 X16.689 Y111.237 E30.82521
G1 X16.504 Y108.758 E30.95066
G1 X16.235 Y106.155 E31.08272
G1 X16.077 Y104.88 E31.14756
G1 X15.454 Y100.142 E31.38872
G1 X15.376 Y99.467 E31.42301
G1 X15.309 Y98.545 E31.46966
G1 X15.308 Y97.98 E31.49818
G1 X15.321 Y97.444 E31.52523
G1 X15.346 Y94.918 E31.65271
G1 X15.302 Y92.417 E31.77895
G1 X15.185 Y89.892 E31.90651
G1 X15.022 Y87.883 E32.00823
G1 X15.011 Y87.605 E32.02227
G1 X14.923 Y86.42 E32.08223
G1 X14.894 Y85.495 E32.12894
G1 X14.94 Y84.619 E32.17321
G1 X15.051 Y83.442 E32.23287
G1 X15.258 Y80.855 E32.36384
G1 X15.391 Y78.306 E32.49265
G1 X15.45 Y75.804 E32.61895
G1 X15.438 Y73.261 E32.74728
G1 X15.355 Y70.755 E32.87382
G1 X15.201 Y68.244 E33.00077
G1 X14.959 Y65.565 E33.13652
G1 X14.891 Y64.917 E33.1694
G1 X14.833 Y63.833 E33.22419
G1 X14.832 Y63.511 E33.24043
G1 X14.909 Y62.199 E33.30676
G1 X14.979 Y61.623 E33.33604
G1 X15.744 Y55.816 E33.63163
G1 X16.051 Y53.207 E33.7642
G1 X16.275 Y50.683 E33.89207
G1 X16.425 Y48.203 E34.01746
G1 X16.506 Y45.668 E34.14545
G1 X16.499 Y41.932 E34.33399
G1 X16.573 Y40.66 E34.39829
G1 X16.678 Y39.778 E34.44311
G1 X18.93 Y22.685 E35.31317
G1 X19.032 Y21.987 E35.34877
G1 X19.206 Y21.078 E35.39548
G1 X19.447 Y20.217 E35.4406
G1 X19.477 Y20.125 E35.44548
G1 X19.653 Y19.627 E35.47214
G1 X19.74 Y19.399 E35.48445
G1 X20.107 Y18.55 E35.53113
G1 X20.546 Y17.736 E35.5778
G1 X21.053 Y16.963 E35.62445
G0 X21.585 Y17.251
G1 X22.062 Y16.648 E35.66325
G1 X22.287 Y16.385 E35.68072
G1 X22.901 Y15.729 E35.72606
G1 X23.571 Y15.13 E35.77142
G1 X24.292 Y14.593 E35.81679
G1 X24.821 Y14.258 E35.84838
G1 X24.914 Y14.203 E35.85384
G1 X25.741 Y13.764 E35.90109
G1 X25.976 Y13.653 E35.9142
G1 X26.805 Y13.305 E35.95958
G1 X27.662 Y13.033 E36.00495
G1 X28.539 Y12.838 E36.05029
G1 X29.135 Y12.751 E36.08069
G1 X29.647 Y12.699 E36.10666
G1 X29.866 Y12.682 E36.11774
G1 X30.765 Y12.653 E36.16313
G1 X31.827 Y12.721 E36.21684
G1 X32.597 Y12.813 E36.25597
G1 X33.807 Y12.974 E36.31757
G1 X35.57 Y13.234 E36.40751
G1 X36.243 Y13.343 E36.44191
G1 X38.72 Y13.674 E36.56803
G1 X40.103 Y13.819 E36.6382
G1 X41.569 Y13.994 E36.71271
G1 X42.722 Y14.147 E36.77141
G1 X44.487 Y14.407 E36.86144
G1 X45.337 Y14.543 E36.90488
G1 X47.89 Y14.878 E37.03482
G1 X49.623 Y15.063 E37.12277
G1 X50.388 Y15.155 E37.16166
G1 X51.633 Y15.32 E37.22504
G1 X52.3 Y15.417 E37.25905
G1 X53.182 Y15.586 E37.30437
G1 X54.268 Y15.909 E37.36155
G1 X55.388 Y16.314 E37.42165
G1 X56.381 Y16.689 E37.47522
G1 X58.815 Y17.53 E37.60518
G1 X61.205 Y18.284 E37.73165
G1 X63.646 Y18.975 E37.85968
G1 X66.161 Y19.613 E37.99062
G1 X68.618 Y20.16 E38.11764
G1 X71.112 Y20.644 E38.24585
G1 X73.61 Y21.055 E38.37361
G1 X76.129 Y21.397 E38.5019
G1 X78.683 Y21.671 E38.63153
G1 X81.205 Y21.868 E38.75919
G1 X83.718 Y21.995 E38.88617
G1 X86.305 Y22.05 E39.01675
G1 X87.429 Y22.046 E39.07348
G1 X129.955 Y22.047 E41.21956
G1 X131.686 Y22.043 E41.30692
G1 X134.241 Y21.97 E41.43591
G1 X136.799 Y21.825 E41.56521
G1 X139.307 Y21.611 E41.69223
G1 X141.837 Y21.323 E41.82074
G1 X144.351 Y20.964 E41.94889
G1 X146.885 Y20.53 E42.07863
G1 X149.315 Y20.043 E42.2037
G1 X151.841 Y19.46 E42.33453
G1 X154.302 Y18.819 E42.46287
G1 X156.736 Y18.111 E42.59079
G1 X159.132 Y17.339 E42.71783
G1 X162.876 Y15.988 E42.9187
G1 X163.787 Y15.707 E42.96681
G1 X164.055 Y15.638 E42.98077
G1 X164.94 Y15.452 E43.02641
G1 X165.481 Y15.368 E43.05404
G1 X167.018 Y15.165 E43.13228
G1 X168.705 Y14.967 E43.218
G1 X169.629 Y14.872 E43.26487
G1 X172.173 Y14.539 E43.39435
G1 X173.932 Y14.262 E43.48421
G1 X174.714 Y14.151 E43.52407
G1 X175.942 Y13.99 E43.58657
G1 X177.663 Y13.787 E43.67403
G1 X178.688 Y13.681 E43.72603
G1 X181.256 Y13.341 E43.85676
G1 X182.693 Y13.118 E43.93014
G1 X183.209 Y13.035 E43.95652
G1 X183.48 Y12.997 E43.97033
G1 X184.87 Y12.814 E44.04108
G1 X185.562 Y12.732 E44.07625
G1 X186.459 Y12.666 E44.12164
G1 X187.307 Y12.677 E44.16443
G1 X187.597 Y12.693 E44.17909
G1 X188.492 Y12.783 E44.22449
G1 X189.374 Y12.951 E44.2698
G1 X189.882 Y13.086 E44.29632
G1 X190.056 Y13.137 E44.30547
G1 X190.906 Y13.428 E44.35081
G1 X191.765 Y13.812 E44.3983
G1 X191.985 Y13.923 E44.41073
G1 X192.768 Y14.363 E44.45606
G1 X193.509 Y14.871 E44.5014
G1 X194.203 Y15.443 E44.54678
G1 X194.796 Y16.025 E44.58871
G1 X195.179 Y16.449 E44.61755
G1 X195.348 Y16.647 E44.63068
G1 X195.901 Y17.356 E44.67606
G1 X196.388 Y18.111 E44.7214
G1 X196.806 Y18.906 E44.76673
G1 X197.167 Y19.777 E44.81431
G1 X197.332 Y20.254 E44.83978
G1 X197.4 Y20.467 E44.85106
G1 X197.635 Y21.335 E44.89645
G1 X197.739 Y21.865 E44.9237
G1 X197.855 Y22.635 E44.963
G1 X200.125 Y39.855 E45.83953
G1 X200.228 Y40.718 E45.88339
G1 X200.293 Y41.614 E45.92873
G1 X200.283 Y42.432 E45.97001
G1 X200.24 Y43.105 E46.00404
G1 X200.232 Y43.192 E46.00845
G1 X200.129 Y43.971 E46.04811
G1 X199.873 Y45.467 E46.1247
G1 X199.838 Y45.658 E46.1345
G1 X199.453 Y48.144 E46.26145
G1 X199.13 Y50.701 E46.39152
G1 X198.885 Y53.214 E46.51894
G1 X198.712 Y55.725 E46.64596
G1 X198.607 Y58.31 E46.77652
G1 X198.576 Y60.807 E46.90254
G1 X198.617 Y63.329 E47.02983
G1 X198.618 Y63.573 E47.04214
G1 X198.605 Y64.124 E47.06996
G1 X198.576 Y64.61 E47.09452
G1 X198.502 Y65.508 E47.14
G1 X198.358 Y67.01 E47.21614
G1 X198.184 Y69.571 E47.34568
G1 X198.084 Y72.097 E47.47326
G1 X198.056 Y74.64 E47.6016
G1 X198.099 Y77.147 E47.72813
G1 X198.217 Y79.742 E47.85923
G1 X198.401 Y82.234 E47.98533
G1 X198.611 Y84.279 E48.08907
G1 X198.652 Y84.742 E48.11253
G1 X198.688 Y85.889 E48.17044
G1 X198.676 Y86.363 E48.19437
G1 X198.649 Y88.903 E48.32256
G1 X198.693 Y91.439 E48.45056
G1 X198.811 Y93.985 E48.57918
G1 X198.999 Y96.523 E48.70761
G1 X199.017 Y96.728 E48.718
G1 X199.074 Y97.454 E48.75475
G1 X199.097 Y98.568 E48.81098
G1 X199.042 Y101.25 E48.94636
G1 X199.061 Y103.794 E49.07474
G1 X199.151 Y106.33 E49.2028
G1 X199.315 Y108.899 E49.33271
G1 X199.544 Y111.386 E49.45875
G1 X199.854 Y113.943 E49.58874
